X:1
T:Title
%%score { ( 1 3 ) | ( 2 4 ) }
L:1/8
Q:1/4=95
M:6/8
K:F
V:1 treble nm="Grand Piano"
V:3 treble 
V:2 bass 
V:4 bass 
V:1
 FEF GFG | A2 d d3 | FEF AFA | c6 | ded cdc | BcB AFA | GAG FE[=B,D] | z cc ccc | %8
w: J.~Lincoln~Hall * * * * *||||||||
 d-[B,Ed-][B,Ed] [EG]3 | c3 z3 | z3 .A3 | d-[Ad-][Ad-] [Ad]3 | B-[EGB-][EGB] [EG]3 | A3 z3 | %14
w: ||||||
 z3 .e3 | .c3 z3 | d3 z3 | c3 z3 | FED F2 G | A6 | G3 z3 | F3 z3 | [Ec][E=B][Ec] d-[B,Ed][Ec] | %23
w: |||||||||
 F[FAcf][FAcf] [FAcf]3 |] %24
w: |
V:2
 [F,A,C][F,G,C][F,A,C] [F,B,C][F,A,C][F,B,C] | [F,CF]2 [F,A,F] [F,A,F]3 | %2
 [F,A,C][F,G,C][F,A,C] [F,CF][F,A,][K:treble][F,CF] | [F,A,F]6 | %4
 [B,F][B,CF][B,F] [A,CF][A,CF][A,CF] | [G,CE][G,CE][G,CE] [F,CF][F,A,][K:treble][F,CF] | %6
 [G,CE][G,CF][G,CE] [G,=B,D][K:bass][G,C][G,,F,] | [C,E,]6 | [C,G,B,][C,G,][C,G,] [C,G,B,]3 | %9
 [F,A,CF][F,A,C][F,A,C] [F,A,C]3 | A,G,F, [F,A,CF][F,A,C][F,A,C] | %11
 [F,A,C][F,A,CF][F,A,CF] [F,A,CF]3 | [C,C][C,C][C,C] [C,C]3 | [F,CF][F,C][F,C] [F,A,C]3 | %14
 [G,CE][G,C_E][G,C=E] .[G,CG]2 [G,=B,F] | z[K:treble] cc ccc | [C,G,B,][C,G,][C,G,] [C,G,B,]3 | %17
 [F,A,CF][F,A,C][F,A,C] [F,A,C]3 | F,E,D, F,2 G, | [A,,E,A,][A,,E,A,][A,,E,A,] [A,,E,A,]3 | %20
 [G,B,D][G,B,][G,B,] [G,B,D]3 | [F,A,C][F,A,][F,A,] [F,A,C]3 | %22
 [C,G,B,][C,G,B,][C,G,B,] [C,G,B,][C,G,][C,G,B,] | .F,3 z3 |] %24
V:3
 x6 | x6 | x6 | x6 | x6 | x6 | x6 | C6 | .E3 z3 | z FF F3 | AGF z F[FAd] | .[FA]3 z3 | .[EG]3 z3 | %13
 z FF F3 | G^FG z G,d | [CE]6 | E[B,E][B,E] [EG]3 | z FF F3 | x6 | ^CCC C3 | z DD d3 | z CC c3 | %22
 z3 .E3 | x6 |] %24
V:4
 x6 | x6 | x5[K:treble] x | x6 | x6 | x5[K:treble] x | x4[K:bass] x2 | x6 | x6 | x6 | x6 | x6 | %12
 x6 | x6 | x6 | C,6[K:treble] | x6 | x6 | x6 | x6 | x6 | x6 | x6 | %23
 A,-[F,,F,A,-][F,,F,A,-] [F,,F,A,]3 |] %24

